www/assets/icons/pest_control_rodent.svg

<svg width="24" height="24" viewBox="0 0 24 24" xmlns="http://www.w3.org/2000/svg" fill='currentColor'><path d="M21.3083 17.38L18.9183 15.25C19.4383 12.89 17.5583 11 15.4983 11C14.3383 11 11.9983 11.9 11.9983 14.5C11.9983 15.47 12.3883 16.34 13.0283 16.97L12.3183 17.68C11.4983 16.87 10.9983 15.74 10.9983 14.5C10.9983 12.8 11.9583 11.33 13.3483 10.57C12.6483 10.21 11.8683 10 11.0683 10C8.68829 10 6.69829 11.65 6.15829 13.87C4.90829 13.5 3.99829 12.36 3.99829 11C3.99829 9.34 5.33829 8 6.99829 8C7.93829 8 8.55829 8 9.49829 8C10.8783 8 11.9983 6.88 11.9983 5.5C11.9983 4.12 10.8783 3 9.49829 3H7.99829C7.44829 3 6.99829 3.45 6.99829 4C6.99829 4.55 7.44829 5 7.99829 5H9.49829C9.77829 5 9.99829 5.22 9.99829 5.5C9.99829 5.78 9.77829 6 9.49829 6C9.46829 6 8.99829 6 6.99829 6C4.23829 6 1.99829 8.24 1.99829 11C1.99829 13.42 3.71829 15.44 5.99829 15.9V15.93C5.99829 18.73 8.26829 21 11.0683 21H19.9283C21.7983 21 22.7383 18.66 21.3083 17.38ZM17.9983 19C17.4483 19 16.9983 18.55 16.9983 18C16.9983 17.45 17.4483 17 17.9983 17C18.5483 17 18.9983 17.45 18.9983 18C18.9983 18.55 18.5483 19 17.9983 19Z"/></svg>

<svg xmlns="http://www.w3.org/2000/svg" width="24" height="24" viewBox="0 0 24 24" fill='currentColor'><path d="m21.308 17.38-2.39-2.13c.52-2.36-1.36-4.25-3.42-4.25-1.16 0-3.5.9-3.5 3.5 0 .97.39 1.84 1.03 2.47l-.71.71a4.46 4.46 0 0 1-1.32-3.18c0-1.7.96-3.17 2.35-3.93a5 5 0 0 0-2.28-.57c-2.38 0-4.37 1.65-4.91 3.87A3 3 0 0 1 3.998 11c0-1.66 1.34-3 3-3h2.5a2.5 2.5 0 0 0 0-5h-1.5c-.55 0-1 .45-1 1s.45 1 1 1h1.5c.28 0 .5.22.5.5s-.22.5-.5.5h-2.5a5.002 5.002 0 0 0-1 9.9v.03c0 2.8 2.27 5.07 5.07 5.07h8.86c1.87 0 2.81-2.34 1.38-3.62M17.998 19c-.55 0-1-.45-1-1s.45-1 1-1 1 .45 1 1-.45 1-1 1"/></svg>
